svgs/regular/starship-freighter.svg

<svg xmlns="http://www.w3.org/2000/svg" viewBox="0 0 576 512"><!-- Font Awesome Pro 6.0.0-alpha2 by @fontawesome - https://fontawesome.com License - https://fontawesome.com/license (Commercial License) --><path d="M128.011 336C119.136 336 112.012 343.125 112.012 352S119.136 368 128.011 368C136.886 368 144.011 360.875 144.011 352S136.886 336 128.011 336ZM96.012 240C87.137 240 80.012 247.125 80.012 256C80.012 264.875 87.137 272 96.012 272S112.012 264.875 112.012 256C112.012 247.125 104.887 240 96.012 240ZM128.011 144C119.136 144 112.012 151.125 112.012 160S119.136 176 128.011 176C136.886 176 144.011 168.875 144.011 160S136.886 144 128.011 144ZM555.001 136.375L311.382 47.625C283.507 37.375 254.133 32.125 224.384 32C195.26 32 166.385 37.375 139.261 49.125C-4.11 111.25 0.014 256 0.014 256S-4.36 400.625 139.261 462.875C166.385 474.625 195.26 480 224.384 480C249.883 480 275.258 475.625 299.882 468L308.882 481.125C322.381 500.5 344.381 512 368.005 512H440.003C467.378 512.125 492.377 496.625 504.502 472.125C516.626 447.75 513.877 418.375 497.252 396.75L555.001 375.625C567.625 371.125 576 359 576 345.625V166.375C576 153 567.625 140.875 555.001 136.375ZM224.384 432C121.011 432 46.638 342.125 48.013 256C46.763 163.25 126.511 80.125 224.259 80C256.508 80 400.004 106.75 400.004 256C399.879 282.875 393.505 309.375 381.505 333.375L328.006 256.375C328.006 256.25 328.006 256.125 328.006 256C328.006 207.375 288.632 168 240.008 168S152.011 207.375 152.011 256C152.011 293.75 176.01 325.75 209.509 338.25L270.508 425.875C255.133 429.5 239.758 432 224.384 432ZM280.007 256C280.007 278.125 262.133 296 240.008 296S200.009 278.125 200.009 256S217.884 216 240.008 216S280.007 233.875 280.007 256ZM440.003 464H368.005C360.13 464 352.756 460.125 348.256 453.75L268.383 338.875C283.882 333.5 297.507 324 307.757 311.375L380.505 416H440.003C453.253 416 464.003 426.75 464.003 440S453.253 464 440.003 464ZM528.001 334.375L435.754 368H417.254C431.754 343.375 441.378 316.25 445.628 288H528.001V334.375ZM528.001 224H445.628C441.003 192.375 429.504 162.125 412.129 135.375L528.001 177.625V224Z"/></svg>

<svg xmlns="http://www.w3.org/2000/svg" viewBox="0 0 576 512"><!--! Font Awesome Pro 6.0.0-alpha3 by @fontawesome - https://fontawesome.com License - https://fontawesome.com/license (Commercial License) --><path d="M128 336c-8.875 0-15.99 7.125-15.99 16s7.124 16 15.1 16c8.875 0 15.99-7.125 15.99-16S136.9 336 128 336zM96.01 240C87.14 240 80.02 247.1 80.02 256c0 8.875 7.112 16 15.99 16S112 264.9 112 256C112 247.1 104.9 240 96.01 240zM128 144C119.1 144 112 151.1 112 160s7.113 16 15.99 16C136.9 176 144 168.9 144 160S136.9 144 128 144zM555 136.4l-243.6-88.77C283.5 37.36 254 32.13 224.3 32c-29.12 0-57.88 5.374-85 17.12c-143.4 62.12-139.2 206.9-139.2 206.9s-4.393 144.6 139.2 206.9c27.12 11.75 55.93 17.13 85.05 17.13c25.5 0 50.96-4.37 75.58-11.1l8.1 13.12c13.5 19.38 35.5 30.87 59.12 30.87L440 512c27.37 .125 52.37-15.38 64.5-39.88c12.12-24.37 9.375-53.75-7.25-75.37l57.75-21.13C567.6 371.1 576 358.1 576 345.6V166.4C576 152.1 567.6 140.9 555 136.4zM224.4 432c-103.4 0-177.7-89.88-176.4-176C46.78 163.2 126.5 80.12 224.3 80c32.25 0 175.7 26.75 175.7 176c-.125 26.88-6.5 53.38-18.5 77.38l-53.5-77V256c0-48.62-39.37-88-87.1-88S152 207.4 152 256c0 37.75 23.1 69.75 57.5 82.25l60.1 87.63C255.1 429.5 239.8 432 224.4 432zM280 256c0 22.12-17.87 40-39.1 40S200 278.1 200 256s17.87-40 39.1-40S280 233.9 280 256zM440 464h-71.1c-7.875 0-15.25-3.875-19.75-10.25l-79.87-114.9c15.5-5.375 29.12-14.88 39.37-27.5L380.5 416h59.5c13.25 0 23.1 10.75 23.1 24S453.3 464 440 464zM528 334.4L435.8 368h-18.5c14.5-24.62 24.04-51.75 28.29-80h82.45V334.4zM528 224h-82.45c-4.625-31.62-16.04-61.88-33.42-88.62l115.9 42.25V224z"/></svg>
